X: 16006
T: Great Grass Sea, The
R: hornpipe
M: 4/4
K: Gmajor
|:"D"dc|"Bm"B2 Bc "Em" BA G2|"G"DGBd "Am" c2 AB|"C"cBAG "G"(3ABA GD|"C"cBAG "D"A2 dc|
"Em" BABG "G"DGBd|"Am"edcB "Em"E2 AB|"C"cBAG "Em"BAGF|"C"A2 G2 "G"G2:|
|:"Bm"Bd|"Em"edgd edgd|"Em" edcB "D" A2 AB|"Am" cAeA cAeA|"Bm" BABc d2 Bc|
"Bm"dcBd "Am"cBAc|"Em"BAGB "G"D2 ((3 FED)|"C"GBAc "Bm"Bdce|"C"((3ABA) "G"GF G2:|

